X:541
T:Tailor's Shirt, The
S:West Edinburgh Folk Group and Matt Seattle
Z:Nigel Gatherer
M:6/8
L:1/8
K:A
B>cd ded | =g2d B2G | c>de efe | a2e c2A  |
B>cd ded | =g2d B2G | c>de efe | a2e c2A ||
a2e  c2A | =g2d B2G | a2e  f2e | a2e c2A  |
=gag gfe |  d2d B2G | cde  ece | a2e c2A ||
<end>
<start>
